!!!OTL: AM BRUNNEN VOR DEM THORE
!!!ARE: Europa, Mitteleuropa, Deutschland
!!!SCT: B0518
!!!YEM: Copyright 1995, estate of Helmut Schaffrath.
**kern
*ICvox
*Ivox
*M3/4
*k[b-]
*F:
{8cc
=1
4.cc
8a
8a
8a
=2
4a
4f
8r}
{8f
=3
4.g
8a
8b-
8g
=4
2a
8r}
{8cc
=5
4.cc
8a
8a
8a
=6
4a
4f
8r}
{8f
=7
4.g
8a
12cc
12b-
12g
=8
2f
8r}
{8f
=9
4.g
8g
8g
8g
=10
8.a
16b-
4cc
8r}
{8cc
=11
4.dd
8cc
8a
8f
=12
2g
8r}
{8g
=13
4.g
8g
8g
8g
=14
8.a
16b-
4cc
8r}
{8cc
=15
4ff
8cc
8a
8b-
8g
=16
2cc
8r}
{8cc
=17
4ff
8cc
8a
8b-
8g
=18
2f
8r}
==
!!!AGN: Wander - Lied
!!!ONB: ESAC (Essen Associative Code) Database: BOEHME
!!!AMT: simple triple
!!!AIN: vox
!!!EED: Helmut Schaffrath
!!!EEV: 1.0
*-
